X:1
T:Their Brains Were Small
M:12/8
L:1/4
K:F
 a a/2| a ^g/2 a f/2 =g f/2 g e/2| f e/2 f d/2 e e/2- e e/2| d A/2 A A/2 B A/2 G B/2|\
 A3 z A/2 A A/2| G A/2- A G/2 e e/2 e f/2-| f f/2- f3/2 z f/2- f e/2|\
 d e/2 f g/2 f e/2 d e/2-| e3 z a/2 a a/2-| a ^g/2 a f/2 =g f/2 g e/2|\
 f e/2 f d/2 e e/2 e e/2| d A/2 A A/2 B A/2 G B/2| A3 z A/2 A3/2| G A/2 G e/2- e3/2 d e/2|\
 f g/2 f e/2- e3/2 z ^c/2| d d/2 A3/2 a- g/2 f d/2-| d3 z d d| c d/2 e f/2 g a/2 b b/2|\
 a f/2- f3/2 z e/2 f g/2| a3/2 a3/2 g3/2 g ^f/2-| f3 z g/2- g e/2|\
 d e/2 ^f g/2 a b/2 c' ^c'/2| d'3/2- d' b/2- b g/2 g a/2| b a/2 b ^g/2 a =g/2 a f/2|\
 g3/2 f a/2- a a/2 a3/2| a ^g/2 a f/2 =g e/2 z g/4g/4| f g/2 f d/2 e e/2 e e/2|\
 d A/2 A A/2 B A/2 G B/2| A3 z A/2 A A/2| G A/2 G e/2- e3/2 z e/2|\
 f g/2 f e/2- e3/2 z e/2| d3/2 A3/2 f3/2 e e/2| d3 z3/2||
